X: 1
T: Dancing Eyes
M: 6/8
L: 1/8
R: jig
K: Gmaj
G,B,D GBd|cAA BAG|ADD fed|cAG FDC|
B, D/D/D GAB|c/B/AG FGA|d^cd fed|cAF G2 D|
G,B,D GBd|{d}cAA {c}BAG|ADD fed|cAG FDC|
B, DD GAB|{d}c/B/AG FGA|d^cd {fg}fed|{d}cAF G2 D||
GBd {a}gag|f/g/ag fdc|B/B/B d cAA|{Bc}BAG AFD|
GBd gag|f/g/ag fdc|BB/c/d c[AD]F|AGF G2 D|
GBd gag|{a}f/g/ag fdc|{Bc}B2 d cA{B}A|BAG AFD|
GBd gag|(f/g/a)g fdc|(B/c/d)B cAF|AGF G2||
